src/assets/svg/storybook.svg

<svg width="60" height="60" viewBox="0 0 60 60" fill="none" xmlns="http://www.w3.org/2000/svg">
<g clip-path="url(#clip0_703_857)">
<path d="M7.78169 55.1707L5.92696 5.75045C5.86571 4.11829 7.11719 2.73506 8.74731 2.63318L50.7827 0.00596437C52.442 -0.0977402 53.8711 1.1633 53.9748 2.82257C53.9787 2.88508 53.9807 2.94771 53.9807 3.01034V56.8624C53.9807 58.5249 52.633 59.8727 50.9705 59.8727C50.9254 59.8727 50.8804 59.8717 50.8354 59.8696L10.6548 58.065C9.08988 57.9947 7.84044 56.736 7.78169 55.1707Z" fill="#FF4785"/>
<mask id="mask0_703_857" style="mask-type:luminance" maskUnits="userSpaceOnUse" x="5" y="0" width="49" height="60">
<path d="M7.78169 55.1707L5.92696 5.75045C5.86571 4.11829 7.11719 2.73506 8.74731 2.63318L50.7827 0.00596437C52.442 -0.0977402 53.8711 1.1633 53.9748 2.82257C53.9787 2.88508 53.9807 2.94771 53.9807 3.01034V56.8624C53.9807 58.5249 52.633 59.8727 50.9705 59.8727C50.9254 59.8727 50.8804 59.8717 50.8354 59.8696L10.6548 58.065C9.08988 57.9947 7.84044 56.736 7.78169 55.1707Z" fill="white"/>
</mask>
<g mask="url(#mask0_703_857)">
<path d="M41.4103 7.35931L41.6975 0.453571L47.4702 0L47.7189 7.12165C47.7275 7.3695 47.5336 7.57743 47.2858 7.58609C47.1797 7.58979 47.0756 7.55577 46.9922 7.49006L44.7661 5.73638L42.1304 7.73572C41.9328 7.8856 41.6511 7.84693 41.5012 7.64934C41.4381 7.56617 41.406 7.46361 41.4103 7.35931ZM34.0276 22.5668C34.0276 23.738 41.9164 23.1767 42.9754 22.354C42.9754 14.3787 38.696 10.1878 30.8597 10.1878C23.0235 10.1878 18.633 14.4439 18.633 20.8281C18.633 31.9472 33.6385 32.16 33.6385 38.2249C33.6385 39.9274 32.8049 40.9382 30.9709 40.9382C28.5811 40.9382 27.6363 39.7177 27.7475 35.568C27.7475 34.6678 18.633 34.3871 18.3551 35.568C17.6475 45.6242 23.9127 48.5248 31.082 48.5248C38.0291 48.5248 43.4755 44.8219 43.4755 38.1185C43.4755 26.2014 28.2477 26.5206 28.2477 20.6153C28.2477 18.2212 30.0261 17.902 31.082 17.902C32.1936 17.902 34.1943 18.0979 34.0276 22.5668Z" fill="white"/>
</g>
</g>
<defs>
<clipPath id="clip0_703_857">
<rect width="60" height="60" fill="white"/>
</clipPath>
</defs>
</svg>

<svg width="60" height="60" viewBox="0 0 60 60" fill="none" xmlns="http://www.w3.org/2000/svg"><g clip-path="url(#a)"><path d="M7.782 55.17 5.927 5.75a3.01 3.01 0 0 1 2.82-3.117L50.783.006A3.01 3.01 0 0 1 53.98 3.01v53.852a3.01 3.01 0 0 1-3.146 3.008l-40.18-1.805a3.01 3.01 0 0 1-2.873-2.894Z" fill="#FF4785"/><mask id="b" style="mask-type:luminance" maskUnits="userSpaceOnUse" x="5" y="0" width="49" height="60"><path d="M7.782 55.17 5.927 5.75a3.01 3.01 0 0 1 2.82-3.117L50.783.006A3.01 3.01 0 0 1 53.98 3.01v53.852a3.01 3.01 0 0 1-3.146 3.008l-40.18-1.805a3.01 3.01 0 0 1-2.873-2.894Z" fill="#fff"/></mask><g mask="url(#b)"><path d="m41.41 7.36.288-6.906L47.47 0l.249 7.122a.45.45 0 0 1-.727.368l-2.226-1.754-2.636 2a.45.45 0 0 1-.72-.377Zm-7.382 15.207c0 1.171 7.888.61 8.947-.213 0-7.975-4.279-12.166-12.115-12.166-7.837 0-12.227 4.256-12.227 10.64 0 11.12 15.006 11.332 15.006 17.397 0 1.702-.834 2.713-2.668 2.713-2.39 0-3.335-1.22-3.224-5.37 0-.9-9.114-1.18-9.392 0-.707 10.056 5.558 12.957 12.727 12.957 6.947 0 12.393-3.703 12.393-10.407 0-11.917-15.227-11.597-15.227-17.503 0-2.394 1.778-2.713 2.834-2.713 1.112 0 3.112.196 2.946 4.665Z" fill="#fff"/></g></g><defs><clipPath id="a"><path fill="#fff" d="M0 0h60v60H0z"/></clipPath></defs></svg>
